X:1
T:Feasting with My Lord
T:L. O. Brown
T:Feasting with My Lord
T:Public Domain
T:Public Domain
C:L. O. Brown
Z:Public Domain
%%score ( 1 2 ) 3
L:1/8
M:4/4
K:F
V:1 treble 
V:2 treble 
V:3 bass 
V:1
 [FA]2 [FA]2 [FA]3 [FA] | [FA][EG] [EG]>[FA] [GB]4 | [CE]2 [EG]4 [EB]2 | [FB]2 [FA]4 z2 | %4
w: 1.~Since my soul is|saved and sanc- ti- fied,|Feast- ing, I’m|feast- ing,|
w: 2.~Feed- ing on the|hon- ey and the wine,|Feast- ing, I’m|feast- ing,|
w: 3.~Day by day we|have a new sup- ply,|Feast- ing, I’m|feast- ing,|
w: 4.~Ma- ny times we|have an ex- tra spread,|Feast- ing, I’m|feast- ing,|
w: 5.~Oft- en there are|on- ly just we two,|Feast- ing, I’m|feast- ing,|
w: 6.~If per- chance the|cup- board’s scarce of bread,|Feast- ing, I’m|feast- ing,|
 [FA]2 [FA]2 [FA]3 [FA] | [FA][EG] [EG]>[FA] [GB]4 | C2 [EB]2 [FA]2 [EG]2 | [CF]6 z2 || %8
w: In this land of|Ca- naan I’ll a- bide,|Feast- ing with my||
w: Ga- ther- ing the|clus- ters from the vine,|Feast- ing with my||
w: And the food is|nev- er stale or dry,|Feast- ing with my||
w: When to deep- er|truths I have been led,|Feast- ing with my||
w: Then He tells me|what He’d have me do,|Feast- ing with my||
w: On the hid- den|man- na I am fed,|Feast- ing with my||
"^Refrain" [FA]2 [FA]4 [EG][FA] | [EB]2 [EB]4 z2 | [EG]2 [EG]2 [Ec]2 [Ed]2 | [Fc]4 [GB]4 | %12
w: ||||
w: ||||
w: ||||
w: ||||
w: ||||
w: ||||
 [FA]2 [FA]4 [FB][Fc] | [Fd]2 [DF]4 z2 | [Fc]3 [FA] [CF]2 [CG]2 | [CF]6 z2 |] %16
w: ||||
w: ||||
w: ||||
w: ||||
w: ||||
w: ||||
V:2
 x8 | x8 | x8 | x8 | x8 | x8 | C2 x6 | x8 || x8 | x8 | x8 | x8 | x8 | x8 | x8 | x8 |] %16
w: ||||||Lord.||||||||||
w: ||||||Lord.||||||||||
w: ||||||Lord.||||||||||
w: ||||||Lord.||||||||||
w: ||||||Lord.||||||||||
w: ||||||Lord.||||||||||
V:3
 [F,C]2 [F,C]2 [F,C]3 [F,C] | [C,C][C,C] [C,C]>[C,C] [C,C]4 | [C,G,]2 [C,C]4 [C,C]2 | %3
w: ~ ~ ~ ~|~ ~ ~ ~ ~|~ ~ ~|
 [F,D]2 [F,C]4 z2 | [F,C]2 [F,C]2 [F,C]3 [F,C] | [C,C][C,C] [C,C]>[C,C] [C,C]4 | %6
w: ~ ~|~ ~ ~ ~|~ ~ ~ ~ ~|
 [C,E,]2 [C,G,]2 [C,C]2 [C,B,]2 | [F,A,]6 z2 || [F,C]2 [F,C]4 [C,C][F,C] | [G,C]2 [G,C]4 z2 | %10
w: ~ ~ ~ ~|~|Feast- ing, I am|feast- ing,|
 [C,C]2 [C,C]2 [C,G,]2 [C,B,]2 | [F,A,]4 [C,C]4 | [F,C]2 [F,C]4 [D,B,][C,A,] | %13
w: Feast- ing with my|Lord; I’m|feast- ing, I am|
 [B,,B,]2 [B,,B,]4 z2 | [C,A,]3 [C,C] [C,A,]2 [C,B,]2 | [F,A,]6 z2 |] %16
w: feast- ing,|On the liv- ing|Word.|

